X: 41121
T: Trip To Spanish Point
R: reel
M: 4/4
K: Adorian
|:EAAE ABcA|=FFFF FFFF|GD G/B/d gdBd|eeed dd c2:|
|:ABcB ABc2|Bcdc Bcd2|ABcB ABcA|^GABG EFGB|
ABcd ABcA|Bcdc BcdB|cBAc BA^GB|AEEE A3z:|

